images/lucy/lucyhappy.svg

<svg xmlns="http://www.w3.org/2000/svg" width="2000" height="1915" fill="none"><path fill="#ffaff3" stroke="#151515" stroke-width="80" d="M905.504 95.13c41.483-73.507 147.506-73.507 188.996 0l217.42 385.27c26.9 47.672 73.23 81.278 126.9 92.095l434.05 87.471c82.87 16.699 115.52 117.344 58.4 179.399L1631.6 1164.95a188.151 188.151 0 0 0-48.49 149.06l50.83 439.33c9.69 83.71-75.98 146.04-152.89 110.88l-402.64-184.05a188.552 188.552 0 0 0-156.823 0l-402.634 184.05c-76.915 35.16-162.584-27.17-152.898-110.88l50.837-439.33c6.292-54.37-11.413-108.78-48.488-149.06L68.725 839.366c-57.118-62.055-24.463-162.7 58.403-179.399l434.053-87.471c53.673-10.817 99.999-44.423 126.901-92.095L905.504 95.13Z"/><path stroke="#151515" stroke-linecap="round" stroke-width="80" d="M1076.35 1148.73a64.085 64.085 0 0 1-9.65 23.15 64.254 64.254 0 0 1-17.77 17.7 64.252 64.252 0 0 1-23.2 9.54 64.346 64.346 0 0 1-25.08-.05 64.292 64.292 0 0 1-23.154-9.66 64.172 64.172 0 0 1-17.696-17.77 64.262 64.262 0 0 1-9.546-23.2"/><path stroke="#151515" stroke-linecap="round" stroke-linejoin="round" stroke-width="80" d="m1400 935.714-85.71 50 85.71 49.996m-778.572 0 85.715-49.996-85.715-50"/></svg>

<svg width="2000" height="1915" viewBox="0 0 2000 1915" fill="none" xmlns="http://www.w3.org/2000/svg">
<path d="M905.504 95.13C946.987 21.6234 1053.01 21.6233 1094.5 95.1299L1311.92 480.401C1338.82 528.073 1385.15 561.679 1438.82 572.496L1872.87 659.967C1955.74 676.666 1988.39 777.311 1931.27 839.366L1631.6 1164.95C1594.52 1205.23 1576.82 1259.64 1583.11 1314.01L1633.94 1753.34C1643.63 1837.05 1557.96 1899.38 1481.05 1864.22L1078.41 1680.17C1028.62 1657.4 971.38 1657.4 921.587 1680.17L518.953 1864.22C442.038 1899.38 356.369 1837.05 366.055 1753.34L416.892 1314.01C423.184 1259.64 405.479 1205.23 368.404 1164.95L68.7254 839.366C11.607 777.311 44.2619 676.666 127.128 659.967L561.181 572.496C614.854 561.679 661.18 528.073 688.082 480.401L905.504 95.13Z" fill="#ffaff3" stroke="#151515" stroke-width="80"/>
<path d="M1076.35 1148.73C1074.69 1157.01 1071.41 1164.87 1066.7 1171.88C1062 1178.89 1055.96 1184.9 1048.93 1189.58C1041.9 1194.25 1034.01 1197.5 1025.73 1199.12C1017.45 1200.75 1008.92 1200.73 1000.65 1199.07C992.371 1197.4 984.504 1194.12 977.496 1189.41C970.487 1184.71 964.474 1178.67 959.8 1171.64C955.126 1164.61 951.882 1156.73 950.254 1148.44" stroke="#151515" stroke-width="80" stroke-linecap="round"/>
<path d="M1400 935.714L1314.29 985.714L1400 1035.71" stroke="#151515" stroke-width="80" stroke-linecap="round" stroke-linejoin="round"/>
<path d="M621.428 1035.71L707.143 985.714L621.428 935.714" stroke="#151515" stroke-width="80" stroke-linecap="round" stroke-linejoin="round"/>
</svg>
